book/images/probability-statistics/probability-normal-distribution.svg

<?xml version="1.0" encoding="UTF-8" standalone="no"?>
<svg
   width="700"
   height="500"
   version="1.1"
   id="svg48"
   sodipodi:docname="probability-normal-distribution.svg"
   inkscape:version="1.2.2 (b0a8486541, 2022-12-01)"
   xmlns:inkscape="http://www.inkscape.org/namespaces/inkscape"
   xmlns:sodipodi="http://sodipodi.sourceforge.net/DTD/sodipodi-0.dtd"
   xmlns="http://www.w3.org/2000/svg"
   xmlns:svg="http://www.w3.org/2000/svg">
  <defs
     id="defs52" />
  <sodipodi:namedview
     id="namedview50"
     pagecolor="#ffffff"
     bordercolor="#000000"
     borderopacity="0.25"
     inkscape:showpageshadow="2"
     inkscape:pageopacity="0.0"
     inkscape:pagecheckerboard="0"
     inkscape:deskcolor="#d1d1d1"
     showgrid="false"
     inkscape:zoom="1.8714286"
     inkscape:cx="350"
     inkscape:cy="250.34351"
     inkscape:window-width="3840"
     inkscape:window-height="2091"
     inkscape:window-x="0"
     inkscape:window-y="32"
     inkscape:window-maximized="1"
     inkscape:current-layer="g46" />
  <g
     transform="translate(100, 50)"
     id="g46">
    <text
       x="250.0"
       y="-20"
       font-family="Arial"
       font-size="18"
       font-weight="bold"
       text-anchor="middle"
       id="text2">Normal Distribution: μ=0, σ=1 with 68-95-99.7 Rule</text>
    <!-- Axes -->
    <line
       x1="0"
       y1="350"
       x2="500"
       y2="350"
       stroke="#333"
       stroke-width="2"
       id="line4" />
    <line
       x1="0"
       y1="350"
       x2="0"
       y2="0"
       stroke="#333"
       stroke-width="2"
       id="line6" />
    <!-- Axis labels -->
    <text
       x="250.0"
       y="385"
       font-family="Arial"
       font-size="14"
       text-anchor="middle"
       id="text8">x</text>
    <text
       x="-40"
       y="175.0"
       font-family="Arial"
       font-size="14"
       text-anchor="middle"
       dominant-baseline="middle"
       transform="rotate(-90, -40, 175.0)"
       id="text10">f(x)</text>
    <!-- Y-axis labels and grid -->
    <line
       x1="0"
       y1="350.0"
       x2="500"
       y2="350.0"
       stroke="#ccc"
       stroke-width="1"
       stroke-dasharray="2,2"
       id="line12" />
    <text
       x="-25.238886"
       y="355"
       font-family="Arial"
       font-size="11px"
       id="text14">0.00</text>
    <line
       x1="0"
       y1="280.0"
       x2="500"
       y2="280.0"
       stroke="#ccc"
       stroke-width="1"
       stroke-dasharray="2,2"
       id="line16" />
    <text
       x="-25.238886"
       y="285"
       font-family="Arial"
       font-size="11px"
       id="text18">0.10</text>
    <line
       x1="0"
       y1="210.0"
       x2="500"
       y2="210.0"
       stroke="#ccc"
       stroke-width="1"
       stroke-dasharray="2,2"
       id="line20" />
    <text
       x="-25.238886"
       y="215"
       font-family="Arial"
       font-size="11px"
       id="text22">0.20</text>
    <line
       x1="0"
       y1="140.0"
       x2="500"
       y2="140.0"
       stroke="#ccc"
       stroke-width="1"
       stroke-dasharray="2,2"
       id="line24" />
    <text
       x="-25.238886"
       y="145"
       font-family="Arial"
       font-size="11px"
       id="text26">0.30</text>
    <line
       x1="0"
       y1="70.0"
       x2="500"
       y2="70.0"
       stroke="#ccc"
       stroke-width="1"
       stroke-dasharray="2,2"
       id="line28" />
    <text
       x="-25.238886"
       y="75"
       font-family="Arial"
       font-size="11px"
       id="text30">0.40</text>
    <line
       x1="0"
       y1="0.0"
       x2="500"
       y2="0.0"
       stroke="#ccc"
       stroke-width="1"
       stroke-dasharray="2,2"
       id="line32" />
    <text
       x="-25.238886"
       y="5"
       font-family="Arial"
       font-size="11px"
       id="text34">0.50</text>
    <!-- 68% region -->
    <polygon
       points="187.5,350 187.5,180.62049283659965 190.05102040816328,173.7109209689978 192.60204081632654,166.82490294817688 195.15306122448982,159.98673127268515 197.70408163265307,153.22138248642787 200.25510204081633,146.55437338521327 202.8061224489796,140.01160740845557 205.35714285714286,133.6192124266535 207.90816326530611,127.40337127914626 210.4591836734694,121.39014654708023 213.01020408163265,115.60530116108558 215.56122448979593,110.07411653962026 218.1122448979592,104.82121003029471 220.66326530612247,99.87035348102305 223.2142857142857,95.24429479916145 225.765306122449,90.96458436385359 228.31632653061223,87.05140813893865 230.8673469387755,83.52342929075343 233.41836734693877,80.39764004711617 235.96938775510205,77.689225441328 238.5204081632653,75.41144046914741 241.07142857142858,73.57550204881727 243.62244897959184,72.19049701613415 246.17346938775512,71.26330721041546 248.72448979591837,70.7985525155139 251.27551020408163,70.7985525155139 253.8265306122449,71.26330721041546 256.37755102040813,72.19049701613415 258.9285714285714,73.57550204881727 261.4795918367347,75.41144046914741 264.030612244898,77.689225441328 266.5816326530612,80.39764004711617 269.13265306122446,83.52342929075343 271.68367346938777,87.05140813893865 274.234693877551,90.96458436385359 276.7857142857143,95.24429479916145 279.33673469387753,99.87035348102305 281.8877551020408,104.82121003029471 284.4387755102041,110.07411653962026 286.98979591836735,115.60530116108558 289.5408163265306,121.39014654708023 292.09183673469386,127.40337127914626 294.64285714285717,133.6192124266535 297.19387755102036,140.01160740845557 299.7448979591837,146.55437338521327 302.2959183673469,153.22138248642787 304.84693877551024,159.9867312726852 307.39795918367344,166.82490294817688 309.94897959183675,173.7109209689978 312.5,180.62049283659965 312.5,350"
       fill="#16a34a"
       opacity="0.3"
       id="polygon36" />
    <!-- Bell curve -->
    <path
       d="M 0.0,349.9063188419646 5.000000000000004,349.87140125139825 10.000000000000009,349.8245950885764 15.000000000000014,349.76227915126145 19.99999999999999,349.6798796301581 24.999999999999993,349.57166864892037 30.0,349.43053513824276 35.0,349.2477286618924 40.00000000000001,349.01257842014104 44.999999999999986,348.712191673423 49.999999999999986,348.3311382589746 54.99999999999999,347.8511306892267 60.0,347.25071245975266 65.0,346.50497055047134 70.0,345.58529152261383 75.00000000000001,344.459183891914 80.00000000000001,343.0901923436742 85.00000000000001,341.43793155410543 90.0,339.4582685708358 95.0,337.10368254719657 100.0,334.32382879360995 104.99999999999999,331.06633031718275 109.99999999999999,327.2778140494118 114.99999999999999,322.9052006967811 120.0,317.89724661026156 125.0,312.20632344076836 130.0,305.79040699536097 135.0,298.61523119284016 140.0,290.65654708438444 145.0,281.9024114679728 150.0,272.35541572438115 155.0,262.03475424763826 160.0,250.97802434261285 165.0,239.24264674073186 170.0,226.9067987916363 175.0,214.06976151175095 180.0,200.8515972569975 185.0,187.39209667964366 190.0,173.84896123131801 195.0,160.39521974116337 200.0,147.21591306696206 205.0,134.50411767110296 210.0,122.45641514114251 215.0,111.26794795875321 220.0,101.12723004580204 225.0,92.2109017876736 230.0,84.6786316931088 235.0,78.66836941249011 240.0,74.29214690202144 245.0,71.6326061418738 250.0,70.74040371899713 255.0,71.6326061418738 260.0,74.29214690202144 265.0,78.66836941249011 270.0,84.67863169310885 275.0,92.21090178767372 280.0,101.12723004580207 285.0,111.26794795875313 290.0,122.45641514114249 295.0,134.5041176711029 300.0,147.21591306696206 305.0,160.39521974116337 310.0,173.84896123131801 315.0,187.39209667964366 320.0,200.8515972569975 325.0,214.06976151175095 330.0,226.9067987916364 335.0,239.2426467407319 340.0,250.9780243426129 345.0,262.03475424763826 350.0,272.35541572438103 355.0,281.90241146797274 360.0,290.65654708438444 365.0,298.61523119284016 370.0,305.79040699536097 375.0,312.20632344076836 380.0,317.89724661026156 385.0,322.9052006967811 390.0,327.2778140494118 395.0,331.06633031718275 400.0,334.32382879361 405.0,337.10368254719657 410.0,339.4582685708358 415.0,341.43793155410543 420.0,343.0901923436742 425.0,344.459183891914 430.0,345.58529152261383 435.0,346.50497055047134 440.0,347.25071245975266 445.0,347.8511306892267 450.0,348.3311382589746 455.0,348.712191673423 460.0,349.01257842014104 465.0,349.2477286618924 470.0,349.43053513824276 475.0,349.57166864892037 480.0,349.6798796301581 485.0,349.76227915126145 490.0,349.8245950885764 495.0,349.87140125139825 500.0,349.9063188419646 "
       stroke="#2563eb"
       stroke-width="3"
       fill="none"
       id="path38" />
    <!-- Mean line -->
    <line
       x1="250.0"
       y1="0"
       x2="250.0"
       y2="350"
       stroke="#dc2626"
       stroke-width="2"
       stroke-dasharray="4,4"
       id="line40" />
    <text
       x="255.0"
       y="15"
       font-family="Arial"
       font-size="12"
       fill="#dc2626"
       id="text42">μ = 0</text>
    <!-- Note -->
    <text
       x="250.0"
       y="405"
       font-family="Arial"
       font-size="12"
       fill="#666"
       text-anchor="middle"
       id="text44">68% within 1σ (green) | 95% within 2σ (orange) | 99.7% within 3σ | Mean μ = 0</text>
  </g>
</svg>

<?xml version='1.0' encoding='utf-8'?>
<svg xmlns="http://www.w3.org/2000/svg" xmlns:ns1="http://sodipodi.sourceforge.net/DTD/sodipodi-0.dtd" xmlns:ns2="http://www.inkscape.org/namespaces/inkscape" width="586.573" height="480.46289" version="1.1" id="svg48" ns1:docname="probability-normal-distribution.svg" ns2:version="1.2.2 (b0a8486541, 2022-12-01)" viewBox="0 0 586.57 480.46">
  <defs id="defs52" />
  <ns1:namedview id="namedview50" pagecolor="#ffffff" bordercolor="#000000" borderopacity="0.25" ns2:showpageshadow="2" ns2:pageopacity="0.0" ns2:pagecheckerboard="0" ns2:deskcolor="#d1d1d1" showgrid="false" ns2:zoom="1.8714286" ns2:cx="350" ns2:cy="250.34351" ns2:window-width="3840" ns2:window-height="2091" ns2:window-x="0" ns2:window-y="32" ns2:window-maximized="1" ns2:current-layer="g46" fit-margin-top="20" fit-margin-left="20" fit-margin-right="20" fit-margin-bottom="20" />
  <g transform="translate(66.5625,52.9375)" id="g46">
    <text x="250" y="-20" font-family="Arial" font-size="18px" font-weight="bold" text-anchor="middle" id="text2">Normal Distribution: μ=0, σ=1 with 68-95-99.7 Rule</text>
    
    <line x1="0" y1="350" x2="500" y2="350" stroke="#333333" stroke-width="2" id="line4" />
    <line x1="0" y1="350" x2="0" y2="0" stroke="#333333" stroke-width="2" id="line6" />
    
    <text x="250" y="385" font-family="Arial" font-size="14px" text-anchor="middle" id="text8">x</text>
    <text x="-40" y="175" font-family="Arial" font-size="14px" text-anchor="middle" dominant-baseline="middle" transform="rotate(-90,-40,175)" id="text10">f(x)</text>
    
    <line x1="0" y1="350" x2="500" y2="350" stroke="#cccccc" stroke-width="1" stroke-dasharray="2, 2" id="line12" />
    <text x="-25.238886" y="355" font-family="Arial" font-size="11px" id="text14">0.00</text>
    <line x1="0" y1="280" x2="500" y2="280" stroke="#cccccc" stroke-width="1" stroke-dasharray="2, 2" id="line16" />
    <text x="-25.238886" y="285" font-family="Arial" font-size="11px" id="text18">0.10</text>
    <line x1="0" y1="210" x2="500" y2="210" stroke="#cccccc" stroke-width="1" stroke-dasharray="2, 2" id="line20" />
    <text x="-25.238886" y="215" font-family="Arial" font-size="11px" id="text22">0.20</text>
    <line x1="0" y1="140" x2="500" y2="140" stroke="#cccccc" stroke-width="1" stroke-dasharray="2, 2" id="line24" />
    <text x="-25.238886" y="145" font-family="Arial" font-size="11px" id="text26">0.30</text>
    <line x1="0" y1="70" x2="500" y2="70" stroke="#cccccc" stroke-width="1" stroke-dasharray="2, 2" id="line28" />
    <text x="-25.238886" y="75" font-family="Arial" font-size="11px" id="text30">0.40</text>
    <line x1="0" y1="0" x2="500" y2="0" stroke="#cccccc" stroke-width="1" stroke-dasharray="2, 2" id="line32" />
    <text x="-25.238886" y="5" font-family="Arial" font-size="11px" id="text34">0.50</text>
    
    <polygon points="190.05102,173.71092 192.60204,166.8249 195.15306,159.98673 197.70408,153.22138 200.2551,146.55437 202.80612,140.01161 205.35714,133.61921 207.90816,127.40337 210.45918,121.39015 213.0102,115.6053 215.56122,110.07412 218.11224,104.82121 220.66327,99.870353 223.21429,95.244295 225.76531,90.964584 228.31633,87.051408 230.86735,83.523429 233.41837,80.39764 235.96939,77.689225 238.52041,75.41144 241.07143,73.575502 243.62245,72.190497 246.17347,71.263307 248.72449,70.798553 251.27551,70.798553 253.82653,71.263307 256.37755,72.190497 258.92857,73.575502 261.47959,75.41144 264.03061,77.689225 266.58163,80.39764 269.13265,83.523429 271.68367,87.051408 274.23469,90.964584 276.78571,95.244295 279.33673,99.870353 281.88776,104.82121 284.43878,110.07412 286.9898,115.6053 289.54082,121.39015 292.09184,127.40337 294.64286,133.61921 297.19388,140.01161 299.7449,146.55437 302.29592,153.22138 304.84694,159.98673 307.39796,166.8249 309.94898,173.71092 312.5,180.62049 312.5,350 187.5,350 187.5,180.62049 " fill="#16a34a" opacity="0.3" id="polygon36" />
    
    <path d="m 0,349.90632 5,-0.0349 5,-0.0468 5,-0.0623 5,-0.0824 5,-0.10821 5,-0.14113 5,-0.18281 5,-0.23515 5,-0.30039 5,-0.38105 5,-0.48001 5,-0.60042 5,-0.74574 5,-0.91968 5,-1.12611 5,-1.36899 5,-1.65226 5,-1.97966 5,-2.35459 5,-2.77985 5,-3.2575 5,-3.78852 5,-4.37261 5,-5.00795 5,-5.69093 5,-6.41591 5,-7.17518 5,-7.95868 5,-8.75414 5,-9.54699 5,-10.32067 5,-11.05673 5,-11.73537 5,-12.33585 5,-12.83704 5,-13.21816 5,-13.4595 5,-13.54314 5,-13.45374 5,-13.17931 5,-12.71179 5,-12.0477 5,-11.18847 5,-10.14072 5,-8.916328 5,-7.53227 5,-6.010263 5,-4.376222 5,-2.659541 5,-0.892202 5,0.892202 5,2.659541 5,4.376222 5,6.010263 5,7.53227 5,8.916328 5,10.14072 5,11.18847 5,12.0477 5,12.71179 5,13.17931 5,13.45374 5,13.54314 5,13.4595 5,13.21816 5,12.83704 5,12.33585 5,11.73537 5,11.05673 5,10.32067 5,9.54699 5,8.75414 5,7.95868 5,7.17518 5,6.41591 5,5.69093 5,5.00795 5,4.37261 5,3.78852 5,3.2575 5,2.77985 5,2.35459 5,1.97966 5,1.65226 5,1.36899 5,1.12611 5,0.91968 5,0.74574 5,0.60042 5,0.48001 5,0.38105 5,0.30039 5,0.23515 5,0.18281 5,0.14113 5,0.10821 5,0.0824 5,0.0623 5,0.0468 5,0.0349" stroke="#2563eb" stroke-width="3" fill="none" id="path38" />
    
    <line x1="250" y1="0" x2="250" y2="350" stroke="#dc2626" stroke-width="2" stroke-dasharray="4, 4" id="line40" />
    <text x="255" y="15" font-family="Arial" font-size="12px" fill="#dc2626" id="text42">μ = 0</text>
    
    <text x="250" y="405" font-family="Arial" font-size="12px" fill="#666666" text-anchor="middle" id="text44">68% within 1σ (green) | 95% within 2σ (orange) | 99.7% within 3σ | Mean μ = 0</text>
  </g>
</svg>
